!!!CDT:
!!!PTL: Il primo libro de madrigali a cinque voci 
!!!PPP: Venice
!!!PPR: Angelo Gardano
!!!PDT: 1604
!!!RISM: P 5480
!!!AGN: Madrigal
!!!SCT: Tsg01003a
!!!SCA: Tsg01003a
!!!voices: 5
!!!COM: Priuli, Giovanni
!!!OTL:	Sai che là corre il mondo ove più versi (Gerusalemme I/3)
**kern	**text	**kern	**text	**kern	**text	**kern	**text	**kern	**text
*part5	*part5	*part4	*part4	*part3	*part3	*part2	*part2	*part1	*part1
*staff5	*staff5	*staff4	*staff4	*staff3	*staff3	*staff2	*staff2	*staff1	*staff1
*I"Basso	*	*I"Quinto	*	*I"Tenore	*	*I"Alto	*	*I"Canto	*
*I'B	*	*I'V	*	*I'T	*	*I'A	*	*I'C	*
*clefF4	*	*clefGv2	*	*clefGv2	*	*clefGv2	*	*clefG2	*
*k[b-]	*	*k[b-]	*	*k[b-]	*	*k[b-]	*	*k[b-]	*
*F:	*	*F:	*	*F:	*	*F:	*	*F:	*
*M4/2	*	*M4/2	*	*M4/2	*	*M4/2	*	*M4/2	*
=1	=1	=1	=1	=1	=1	=1	=1	=1	=1
!!LO:TX:a:t=Seconda parte.
1r	.	1r	.	2r	.	0r	.	2f	Sai
.	.	.	.	2F	Sai	.	.	8aL	che
.	.	.	.	.	.	.	.	8g	là
.	.	.	.	.	.	.	.	8a	cor-
.	.	.	.	.	.	.	.	8b-yJ	-re il
2r	.	2F	Sai	8AL	che	.	.	2cc	mon-
.	.	.	.	8G	là	.	.	.	.
.	.	.	.	8A	cor-	.	.	.	.
.	.	.	.	8B-yJ	-re il	.	.	.	.
2FF	Sai	8AL	che	2c	mon-	.	.	2f	-do,
.	.	8G	là	.	.	.	.	.	.
.	.	8A	cor-	.	.	.	.	.	.
.	.	8B-yJ	-re il	.	.	.	.	.	.
=2	=2	=2	=2	=2	=2	=2	=2	=2	=2
8AAL	che	2c	mon-	2F	-do,	2c	Sai	4r	.
8GG	là	.	.	.	.	.	.	.	.
8AA	cor-	.	.	.	.	.	.	4cc	o-
8BB-yJ	-re il	.	.	.	.	.	.	.	.
2C	mon-	4c	-do,	4r	.	8eL	che	4cc	-ve
.	.	.	.	.	.	8d	là	.	.
.	.	4G	<Sai	4c	<Sai	8e	cor-	4g	più
.	.	.	.	.	.	8fJ	-re il	.	.
2GG	-do,	8dL	che	8B-yL	che	4g	mon-	8b-yL	ver-
.	.	8c	là	8A	là	.	.	8cc	.
.	.	8B-y	cor-	8B-y	cor-	8fL	.	8dd	.
.	.	8AJ	-re il	8cJ	-re il	8eJ	.	8ccJ	.
4r	.	[2G	mon-	4.d	mon-	2d	.	8b-yL	.
.	.	.	.	.	.	.	.	8cc	.
4G	o-	.	.	.	.	.	.	8b-y	.
.	.	.	.	16cLL	.	.	.	8aJ	.
.	.	.	.	16BnXiJJ	.	.	.	.	.
=3	=3	=3	=3	=3	=3	=3	=3	=3	=3
4C	-ve	2G]	.	2c	.	2e	-do,	2g	.
4C	più	.	.	.	.	.	.	.	.
8FL	ver-	2A	-do,>	1c	-do,>	2r	.	4.f	-si,
8G	.	.	.	.	.	.	.	.	.
8A	.	.	.	.	.	.	.	.	.
8GJ	.	.	.	.	.	.	.	8g	.
8FL	.	4r	.	.	.	2r	.	1a	.
8G	.	.	.	.	.	.	.	.	.
8F	.	4F	<Sai	.	.	.	.	.	.
8EJ	.	.	.	.	.	.	.	.	.
2D	.	8AL	che	4r	.	2f	<Sai	.	.
.	.	8G	là	.	.	.	.	.	.
.	.	8A	cor-	4d	o-	.	.	.	.
.	.	8B-yJ	-re il	.	.	.	.	.	.
=4	=4	=4	=4	=4	=4	=4	=4	=4	=4
2C	-si,	2c	mon-	4G	-ve	8eL	che	1r	.
.	.	.	.	.	.	8d	là	.	.
.	.	.	.	4G	più	8e	cor-	.	.
.	.	.	.	.	.	8fJ	-re il	.	.
2r	.	1G	-do,>	8B-yL	ver-	2g	mon-	.	.
.	.	.	.	8c	.	.	.	.	.
.	.	.	.	8d	.	.	.	.	.
.	.	.	.	8cJ	.	.	.	.	.
2GG	Sai	.	.	8B-yL	.	2d	-do,> o-	4r	.
.	.	.	.	8c	.	.	.	.	.
.	.	.	.	8B-y	.	.	.	4a	o-
.	.	.	.	8AJ	.	.	.	.	.
8BB-yL	che	2r	.	2G	.	4B-y	-ve	4d	-ve
8AA	là	.	.	.	.	.	.	.	.
8BB-y	cor-	.	.	.	.	4d	più	4d	più
8CJ	-re il	.	.	.	.	.	.	.	.
=5	=5	=5	=5	=5	=5	=5	=5	=5	=5
1D	mon-	4r	.	1F	-si,	8dL	ver-	8fL	ver-
.	.	.	.	.	.	8e	.	8g	.
.	.	4D	<Sai	.	.	8f	.	8a	.
.	.	.	.	.	.	8eJ	.	8gJ	.
.	.	8FL	che	.	.	8dL	.	8fL	.
.	.	8E	là	.	.	8e	.	8g	.
.	.	8F	cor-	.	.	8d	.	8f	.
.	.	8FJ	-re il	.	.	8cJ	.	8eJ	.
1GG	-do,	2G	mon-	2r	.	4BnX	.	4d	.
.	.	.	.	.	.	2c	.	4c	.
.	.	2G	-do,> o-	2D	Sai	.	.	2d	.
.	.	.	.	.	.	4BnX	.	.	.
=6	=6	=6	=6	=6	=6	=6	=6	=6	=6
1r	.	4C	-ve	8GL	che	2c	-so,	2e	-si,
.	.	.	.	8F	là	.	.	.	.
.	.	4C	più	8G	cor-	.	.	.	.
.	.	.	.	8GJ	-re il	.	.	.	.
.	.	8FL	ver-	1A	mon-	4r	.	2r	.
.	.	8G	.	.	.	.	.	.	.
.	.	8A	.	.	.	4c	Sai	.	.
.	.	8GJ	.	.	.	.	.	.	.
4r	.	8FL	.	.	.	8fL	che	1r	.
.	.	8G	.	.	.	8e	là	.	.
4D	o-	8F	.	.	.	8f	cor-	.	.
.	.	8EJ	.	.	.	8fJ	-re il	.	.
4GG	-ve	2D	.	2B-y	-do,	2g	mon-	.	.
4GG	più	.	.	.	.	.	.	.	.
=7	=7	=7	=7	=7	=7	=7	=7	=7	=7
8BB-yL	ver-	2D	-si	4r	.	2f	-do,	4r	.
8C	.	.	.	.	.	.	.	.	.
8D	.	.	.	4A	o-	.	.	4.dd	<o-
8CJ	.	.	.	.	.	.	.	.	.
8BB-yL	.	2r	.	4D	-ve	4r	.	.	.
8C	.	.	.	.	.	.	.	8g	-ve
8BB-y	.	.	.	4D	più	4B-y	o-	4g	più
8AAJ	.	.	.	.	.	.	.	.	.
[1GG	.	1r	.	8GL	ver-	4d	-ve	8b-yL	ver-
.	.	.	.	8A	.	.	.	8cc	.
.	.	.	.	8B-y	.	4d	più	8dd	.
.	.	.	.	8AJ	.	.	.	8ccJ	.
.	.	.	.	8GL	.	4d	ver-	8b-yL	.
.	.	.	.	8A	.	.	.	8cc	.
.	.	.	.	8G	.	8GL	.	8b-y	.
.	.	.	.	8FJ	.	8AJ	.	8aJ	.
=8	=8	=8	=8	=8	=8	=8	=8	=8	=8
1GG]	.	1r	.	4E	.	8B-yL	.	4.g	.
.	.	.	.	.	.	8c	.	.	.
.	.	.	.	2F	.	8B-y	.	.	.
.	.	.	.	.	.	8AJ	.	8a	.
.	.	.	.	.	.	2G	.	2b-y	.
.	.	.	.	4E	.	.	.	.	.
2FF	-si	2r	.	2.F	-si	2.c	-si	2.a	-si>
2F	Di	2A	Di	.	.	.	.	.	.
.	.	.	.	4c	Di	4f	Di	4a	Di
=9	=9	=9	=9	=9	=9	=9	=9	=9	=9
2F	sue	2A	sue	2c	sue	2f	sue	2a	sue
2D	dol-	2F	dol-	4r	.	2f	dol-	2bnX	dol-
.	.	.	.	4F	dol-	.	.	.	.
1C	-cez-	1A	-cez-	1c	-cez-	2f	-cez-	1cc	-cez-
.	.	.	.	.	.	4e	.	.	.
.	.	.	.	.	.	4d	.	.	.
=10	=10	=10	=10	=10	=10	=10	=10	=10	=10
2C	-ze	2G	-ze	2c	-ze il	4e	.	4c	-ze il
.	.	.	.	.	.	4e	-ze il	4.cc	lu-
2r	.	2r	.	4.f	lu-	4.a	lu-	.	.
.	.	.	.	.	.	.	.	8b-i	-sin-
.	.	.	.	.	.	.	.	2a	-ghier
.	.	.	.	8e	-sin-	8g	-sin-	.	.
1r	.	2r	.	4d	-ghier	4f#X	-ghier	.	.
.	.	.	.	4G	Par-	2g	Par-	4b-y	Par-
.	.	4r	.	2d	-na-	.	.	2a	-na-
.	.	4D	il	.	.	4f#X	-na-	.	.
=11	=11	=11	=11	=11	=11	=11	=11	=11	=11
4r	.	4.G	lu-	2d	-so,	4g	-so,	2g	-so,
4GG	il	.	.	.	.	4d	il	.	.
.	.	8F	-sin-	.	.	.	.	.	.
4.C	lu-	4E	-ghier,	4G	il	4.e	lu-	4r	.
.	.	2E	<il	4.c	lu-	.	.	4g	il
8BB-y	-sin-	.	.	.	.	8d	-sin-	.	.
2.AA	-ghier	.	.	.	.	2c	-ghier	4.cc	lu-
.	.	.	.	8B-y	-sin-	.	.	.	.
.	.	4.A	lu-	2A	-ghier	.	.	.	.
.	.	.	.	.	.	.	.	8b-y	-sin-
.	.	.	.	.	.	2d	Par-	4a	-ghier
.	.	8GL	-sin-	.	.	.	.	.	.
4D	Par-	8F	-ghier>	4A	Par-	.	.	[4dd	Par-
.	.	8FJ	Par-	.	.	.	.	.	.
=12	=12	=12	=12	=12	=12	=12	=12	=12	=12
2AA	-na-	2E	-na-	2A	-na-	2e	-na-	4dd]	.
.	.	.	.	.	.	.	.	4cc#X	-na-
2D	-so;	2F#X	-so;	2A	-so;	2d	-so;	2dd	-so;
1r	.	1r	.	2r	.	2r	.	2r	.
.	.	.	.	2d	E	2f#X	E	2a	E
=13	=13	=13	=13	=13	=13	=13	=13	=13	=13
0r	.	0r	.	4d	che'l	4f#X	che'l	4a	che'l
.	.	.	.	4.d	ve-	4.f#X	ve-	4.a	ve-
.	.	.	.	8d	-ro	8f#X	-ro	8a	-ro
.	.	.	.	4B-y	con-	4g	con-	4b-y	con-
.	.	.	.	2.c	-di-	2.e	-di-	2.g	-di-
.	.	.	.	4A	-to in	4fnXi	-to in	4a	-to in
=14	=14	=14	=14	=14	=14	=14	=14	=14	=14
2r	.	1r	.	4B-y	mol-	4d	mol-	8gL	mol-
.	.	.	.	.	.	.	.	8fJ	-li
.	.	.	.	4A	-li	4c	-li	2f	ver-
4r	.	.	.	2G	ver-	4B-y	ver-	.	.
8CL	I	.	.	.	.	4c	.	4e	.
8CJ	più	.	.	.	.	.	.	.	.
4D	schi-	4r	.	2F	-si,	2A	-si,	2f	-si,
8DL	-vi al-	8FL	I	.	.	.	.	.	.
8DJ	-let-	8FJ	più	.	.	.	.	.	.
4E	-tan-	4G	schi-	2r	.	4r	.	2r	.
4E	-d'ha	8GL	-vi al-	.	.	8cL	I	.	.
.	.	8GJ	-let-	.	.	8cJ	più	.	.
=15	=15	=15	=15	=15	=15	=15	=15	=15	=15
4F	per-	4A	-tan-	1r	.	4d	schi-	4r	.
4D	-su-	4A	-d'ha	.	.	8dL	-vi al-	8fL	I
.	.	.	.	.	.	8dJ	-let-	8fJ	più
2C	-a-	2.c	per-	.	.	2e	-tan-	4g	schi-
.	.	.	.	.	.	.	.	8gL	-vi al-
.	.	.	.	.	.	.	.	8gJ	-let-
2FF	-so,	.	.	4r	.	8fL	-d'ha	4a	-tan-
.	.	.	.	.	.	8gJ	per-	.	.
.	.	4A	-su-	8FL	I	2a	-su-	2cc	-d'ha
.	.	.	.	8FJ	più	.	.	.	.
2r	.	2d	-a-	4G	schi-	.	.	.	.
.	.	.	.	8GL	-vi al-	[4g	-a-	[4b-y	per-
.	.	.	.	8GJ	-let-	.	.	.	.
=16	=16	=16	=16	=16	=16	=16	=16	=16	=16
1r	.	2c	-so,	4A	-tan-	4g]	.	4b-]	.
.	.	.	.	4A	-d'ha	4f	.	4a	-su-
.	.	2r	.	4B-y	per-	2d	.	8gL	-a-
.	.	.	.	.	.	.	.	8fJ	.
.	.	.	.	4B-y	-su-	.	.	2f	.
4r	.	2r	.	2c	-a-	2g	-so,	.	.
8CL	I	.	.	.	.	.	.	4e	.
8CJ	più	.	.	.	.	.	.	.	.
4D	schi-	4r	.	2A	-so,	2r	.	2f	-so,
8DL	-vi al-	8FL	I	.	.	.	.	.	.
8DJ	-let-	8FJ	più	.	.	.	.	.	.
=17	=17	=17	=17	=17	=17	=17	=17	=17	=17
4E	-tan-	4G	schi-	4r	.	1r	.	4r	.
2F	-d'ha	8AL	-vi al-	4A	ha	.	.	8fL	I
.	.	8AJ	-let-	.	.	.	.	8fJ	più
.	.	4B-y	-tan-	2G	per-	.	.	4g	schi-
2E	per-	2c	-d'ha	.	.	.	.	8gL	-vi al-
.	.	.	.	.	.	.	.	8gJ	-let-
.	.	.	.	2F	-su-	4r	.	4a	-tan-
2D	-su-	2d	per-	.	.	8fL	<I	4a	-d'ha
.	.	.	.	.	.	8fJ	più	.	.
.	.	.	.	2E	-a-	4g	schi-	4bnX	per-
[4C	-a-	4e	-su-	.	.	8gL	-vi al-	4cc	-su-
.	.	.	.	.	.	8gJ	-let-	.	.
=18	=18	=18	=18	=18	=18	=18	=18	=18	=18
4C]	.	2f	-a-	2D	-so,	4a	-tan-	2dd	-a-
4BBnX	.	.	.	.	.	2d	-d'ha	.	.
2C	-so,	4e	-so,	4r	.	.	.	2g	-so,
.	.	8EL	I	8CL	I	2c	per-	.	.
.	.	8EJ	più	8CJ	più	.	.	.	.
2r	.	4F	schi-	4D	schi-	.	.	2r	.
.	.	8FL	-vi al-	8DL	-vi al-	2B-y	-su-	.	.
.	.	8FJ	-let-	8DJ	-let-	.	.	.	.
4r	.	4G	-tan-	4E	-tan-	.	.	[2cc	ha
8FFL	<I	4E	-do	4C	-do	4A	-a-	.	.
8FFJ	più	.	.	.	.	.	.	.	.
=19	=19	=19	=19	=19	=19	=19	=19	=19	=19
4GG	schi-	2r	.	4r	.	2G	.	4cc]	.
8GGL	-vi al-	.	.	2G	ha	.	.	2b-y	per-
8GGJ	-let-	.	.	.	.	.	.	.	.
4AA	-tan-	4r	.	.	.	2c	-so,>	.	.
4AA	-d'ha	2c	ha	2F	per-	.	.	2a	-su-
4BB-i	per-	.	.	.	.	4r	.	.	.
4BB-y	-su-	2B-y	per-	4D	-su-	4d	ha	2g	-a-
[2C	-a-	.	.	4E	-a-	4c	per-	.	.
.	.	4A	-su-	4C	-so:	4F	-su-	[4f	.
=20	=20	=20	=20	=20	=20	=20	=20	=20	=20
2C]	.	2G	-a-	2r	.	2c	-a-	4f]	.
.	.	.	.	.	.	.	.	4e	.
2FF	-so:>	2F	-so:	2c	Co-	2c	-so:	2f	-so:
2r	.	2r	.	2A	-sì a	2r	.	2r	.
2F	Co-	2c	Co-	[2A	l'e-	2f	Co-	2a	Co-
=21	=21	=21	=21	=21	=21	=21	=21	=21	=21
2D	-sì a	2d	-sì a	4A]	.	2f#X	-sì a	2a	-sì a
.	.	.	.	4A	-gro	.	.	.	.
2.D	l'e-	2.d	l'e-	2d	fan-	2.f#X	l'e-	2.a	l'e-
.	.	.	.	2A	-ciul	.	.	.	.
4D	-gro	4d	-gro	.	.	4f#X	-gro	4a	-gro
2G	fan-	2d	fan-	4r	.	2g	fan-	2b-y	fan-
.	.	.	.	4G	por-	.	.	.	.
=22	=22	=22	=22	=22	=22	=22	=22	=22	=22
2D	-ciul	2d	-ciul	2F#X	-gia-	2a	-ciul	2a	-ciul
2r	.	2r	.	2G	-mo a-	4r	.	4r	.
.	.	.	.	.	.	4d	por-	4g	por-
1r	.	2r	.	2A	-sper-	2c#X	-gia-	2e	-gia-
.	.	2D	por-	4D	-si,	2d	-mo a-	2f	-mo a-
.	.	.	.	4A	<por-	.	.	.	.
=23	=23	=23	=23	=23	=23	=23	=23	=23	=23
2r	.	2C#X	-gia-	2E	-gia-	2e	-sper-	2a	-sper-
4r	.	2D	-mo a-	2FnXi	-mo a-	2d	-si,	4f	-si,
4D	por-	.	.	.	.	.	.	4d	a-
2AA	-gia-	2E	-sper-	2A	-sper-	2r	.	2c#X	-sper-
2BB-y	-mo a-	4D	-si,	2F	-si,>	4r	.	2d	-si,
.	.	4D	<por-	.	.	4f	<por-	.	.
=24	=24	=24	=24	=24	=24	=24	=24	=24	=24
1AA	-sper-	2E	-gia-	2r	.	2c#X	-gia-	2r	.
.	.	2F	-mo a-	2f	por-	2d	-mo a-	2a	por-
1AA	-si	1A	-sper-	2c#X	-gia-	2e	-sper-	2e	-gia-
.	.	.	.	2d	-mo a-	2A	-si>	2f	-mo a-
=25	=25	=25	=25	=25	=25	=25	=25	=25	=25
1r	.	2A	-si>	2d	-sper-	0r	.	1e	-sper-
.	.	1A	Di	2c#X	.	.	.	.	.
[1D	Di	.	.	1d	-si	.	.	1f	-si
.	.	2B-y	so-	.	.	.	.	.	.
=26	=26	=26	=26	=26	=26	=26	=26	=26	=26
2D]	.	2F#X	-a-	1.d	Di	1r	.	1r	.
2BB-y	so-	4G	-vi	.	.	.	.	.	.
.	.	4G	li-	.	.	.	.	.	.
2FF#X	-a-	2A	-cor	.	.	2r	.	[1dd	Di
4GG	-vi	8GL	gli or-	2B-y	so-	4r	.	.	.
.	.	8A	.	.	.	.	.	.	.
4GG	li-	8B-y	.	.	.	[4d	Di	.	.
.	.	8GJ	.	.	.	.	.	.	.
=27	=27	=27	=27	=27	=27	=27	=27	=27	=27
1.D	-cor	4A	.	2F#X	-a-	4d]	.	2dd]	.
.	.	8AL	-li	.	.	4A	so-	.	.
.	.	8AJ	del	.	.	.	.	.	.
.	.	1d	va-	4G	-vi	2B-y	-a-	2b-y	so-
.	.	.	.	4G	li-	.	.	.	.
.	.	.	.	2A	-cor	2A	-vi	2f#X	-a-
2r	.	2B-y	-so,	8GL	gli or-	2d	li-	4g	-vi
.	.	.	.	8A	.	.	.	.	.
.	.	.	.	8B-y	.	.	.	4g	li-
.	.	.	.	8GJ	.	.	.	.	.
=28	=28	=28	=28	=28	=28	=28	=28	=28	=28
8FL	gli or-	2r	.	4c	.	2A	-cor	2a	-cor
8G	.	.	.	.	.	.	.	.	.
8A	.	.	.	8cL	-li	.	.	.	.
8FJ	.	.	.	8cJ	del	.	.	.	.
4G	.	8B-yL	gli or-	2B-y	va-	2r	.	2r	.
.	.	8c	.	.	.	.	.	.	.
8GL	-li	8d	.	.	.	.	.	.	.
8GJ	del	8B-yJ	.	.	.	.	.	.	.
2A	va-	4c	.	2A	-so;	8fL	gli or-	2r	.
.	.	.	.	.	.	8g	.	.	.
.	.	8cL	-li	.	.	8a	.	.	.
.	.	8cJ	del	.	.	8fJ	.	.	.
2G	-so;	4d	va-	2r	.	2g	.	8b-yL	gli or-
.	.	.	.	.	.	.	.	8cc	.
.	.	4B-y	-so;	.	.	.	.	8dd	.
.	.	.	.	.	.	.	.	8b-yJ	.
=29	=29	=29	=29	=29	=29	=29	=29	=29	=29
1r	.	0r	.	1r	.	8eL	-li	4cc	.
.	.	.	.	.	.	8cJ	del	.	.
.	.	.	.	.	.	2f	va-	8aL	-li
.	.	.	.	.	.	.	.	8fJ	del
.	.	.	.	.	.	.	.	2g	va-
.	.	.	.	.	.	4e	.	.	.
2r	.	.	.	2r	.	1f	-so;	1f	-so;
[2F	Suc-	.	.	[2A	Suc-	.	.	.	.
=30	=30	=30	=30	=30	=30	=30	=30	=30	=30
2F]	.	0r	.	2A]	.	1.a	Suc-	1.cc	Suc-
2E	-chi a-	.	.	2G	-chi a-	.	.	.	.
1D	-ma-	.	.	2F#X	-ma-	.	.	.	.
.	.	.	.	4G	-ri in-	[2g	-chi a-	2b-y	-chi a-
.	.	.	.	4G	-gan-	.	.	.	.
=31	=31	=31	=31	=31	=31	=31	=31	=31	=31
2AA	-ri in-	1.c	Suc-	4A	-na-	2g]	.	1a	-ma-
.	.	.	.	4E	-to,	.	.	.	.
2BB-y	-gan-	.	.	2r	.	1f	-ma-	.	.
1C	-na-	.	.	[1c	<Suc-	.	.	2a	-ri in-
.	.	2B-y	-chi a-	.	.	4e	.	2b-y	-gan-
.	.	.	.	.	.	4d	.	.	.
=32	=32	=32	=32	=32	=32	=32	=32	=32	=32
0C	-to	1A	-ma-	2c]	.	1.e	.	1cc	-na-
.	.	.	.	2B-y	-chi a-	.	.	.	.
.	.	2E	-ri in-	1A	-ma-	.	.	1cc	-to
.	.	2F	-gan-	.	.	4c	-ri in-	.	.
.	.	.	.	.	.	4c	-gan-	.	.
=33	=33	=33	=33	=33	=33	=33	=33	=33	=33
0r	.	4G	-na-	2E	-ri in-	2g	-na-	1r	.
.	.	4c	-to in	.	.	.	.	.	.
.	.	4c	tan-	2F	-gan-	2c	-to	.	.
.	.	4A	-to ei	.	.	.	.	.	.
.	.	4B-y	be-	1G	-na-	1r	.	4r	.
.	.	4A	.	.	.	.	.	4g	in
.	.	4B-y	.	.	.	.	.	4g	tan-
.	.	4c	.	.	.	.	.	4e	-to ei
=34	=34	=34	=34	=34	=34	=34	=34	=34	=34
0r	.	4d	.	0F	-to>	1r	.	4f	be-
.	.	4c	.	.	.	.	.	4e	.
.	.	4d	.	.	.	.	.	4f	.
.	.	4e	.	.	.	.	.	4g	.
.	.	1f	.	.	.	2r	.	4a	.
.	.	.	.	.	.	.	.	4g	.
.	.	.	.	.	.	4r	.	4a	.
.	.	.	.	.	.	4f	E	4b-y	.
=35	=35	=35	=35	=35	=35	=35	=35	=35	=35
1r	.	1c	-ve,	4r	.	8eL	da	1cc	.
.	.	.	.	.	.	8d	l'in-	.	.
.	.	.	.	4E	E	8c	-gan-	.	.
.	.	.	.	.	.	8B-yJ	-no	.	.
.	.	.	.	8FL	da	4A	suo	.	.
.	.	.	.	8G	l'in-	.	.	.	.
.	.	.	.	8A	-gan-	4f	vi-	.	.
.	.	.	.	8B-yJ	-no	.	.	.	.
4r	.	1r	.	4c	suo	4e	-ta	4g	-ve,
4AA	E	.	.	4c	vi-	4e	ri-	4c	E
8BB-yL	dal-	.	.	4B-y	-ta	2d	-ce-	8dL	da
8C	-l'in-	.	.	.	.	.	.	8e	l'in-
8D	-gan-	.	.	4B-y	ri-	.	.	8f	-gan-
8EJ	-no	.	.	.	.	.	.	8gJ	-no
=36	=36	=36	=36	=36	=36	=36	=36	=36	=36
4F	suo	4r	.	2A	-ce-	4c	-ve,	4a	suo,
4F	vi-	4A	vi-	.	.	4a	E	4cc	E
4G	-ta	4A	-ta	2d	-ve,	8gL	da	8b-yL	da
.	.	.	.	.	.	8f	l'in-	8a	l'in-
4G	ri-	4B-y	ri-	.	.	8e	-gan-	8g	-gan-
.	.	.	.	.	.	8dJ	-no	8fJ	-no
2A	-ce-	4c	-ce-	4r	.	4c	suo	4e	suo
.	.	4A	-ve,	4F	<E	4f	vi-	4cc	vi-
2G	-ve,	2r	.	8GL	da	4d	-ta	4b-y	-ta
.	.	.	.	8A	l'in-	.	.	.	.
.	.	.	.	8B-y	-gan-	[4g	ri-	4b-y	ri-
.	.	.	.	8cJ	-no	.	.	.	.
=37	=37	=37	=37	=37	=37	=37	=37	=37	=37
4r	.	4r	.	4d	suo	4g]	.	2a	-ce-
4AA	E	4C	E	4c	vi-	4f#X	-ce-	.	.
8BB-yL	dal-	8DL	da	4B-y	-ta	4g	-ve,	4g	-ve,>
8C	-l'in-	8E	l'in-	.	.	.	.	.	.
8D	-gan-	8F	-gan-	4B-y	ri-	4d	vi-	4r	.
8EJ	-no	8GJ	-no	.	.	.	.	.	.
4F	suo,	4A	suo	4A	-ce-	4c	-ta	2r	.
4EE	<E	4c	vi-	4G	-ve,	4g	ri-	.	.
8FFL	da	2A	-ta,	4r	.	4fnXi	-ce-	4dd	E
8GG	l'in-	.	.	.	.	.	.	.	.
8AA	-gan-	.	.	8r	.	8fL	-ve,	8ccL	da
8BB-yJ	-no	.	.	8d	E	8fJ	E	8b-yJ	l'in-
=38	=38	=38	=38	=38	=38	=38	=38	=38	=38
4C	suo>	4r	.	8cL	da	8eL	da	8aL	-gan-
.	.	.	.	8B-y	l'in-	8d	l'in-	8gJ	-no
4C	vi-	4E	vi-	8A	-gan-	8c	-gan-	4cc	suo
.	.	.	.	8GJ	-no	8B-yJ	-no	.	.
4D	-ta	4F	-ta	2F	suo,	4A	suo	4r	.
4D	ri-	4F	ri-	.	.	4d	vi-	4f	vi-
4.E	-ce-	4G	-ce-	4r	.	4c	-ta	4e	-ta
.	.	4G	-ve,	4c	<E	2c	ri-	4e	ri-
8F	.	.	.	.	.	.	.	.	.
2G	.	2r	.	8B-yL	da	.	.	2d	-ce-
.	.	.	.	8A	l'in-	.	.	.	.
.	.	.	.	8G	-gan-	4BnX	-ce-	.	.
.	.	.	.	8FJ	-no	.	.	.	.
=39	=39	=39	=39	=39	=39	=39	=39	=39	=39
2C	-ve,	4r	.	4E	suo>	2c	-ve,	2e	-ve,
.	.	4C	vi-	4c	vi-	.	.	.	.
2r	.	4D	-ta	4B-y	-ta	4r	.	2r	.
.	.	4E	ri-	4B-y	ri-	4g	vi-	.	.
4r	.	4F	-ce-	2A	-ce-	4f	-ta	4r	.
4AA	vi-	4C	-ve,	.	.	4e	ri-	4cc	vi-
4BB-y	-ta	2r	.	4.F	-ve,	2d	-ce-	4b-y	-ta
4BB-y	ri-	.	.	.	.	.	.	4a	ri-
.	.	.	.	8D	vi-	.	.	.	.
=40	=40	=40	=40	=40	=40	=40	=40	=40	=40
1C	-ce-	8r	.	4E	-ta	8GL	-ve,	8gL	-ce-
.	.	8c	vi-	.	.	8G	<vi-	8aJ	.
.	.	8B-yL	-ta	4F	ri-	8A	-ta	2f	.
.	.	8AJ	ri-	.	.	8B-yJ	ri-	.	.
.	.	2G	-ce-	2G	-ce-	2c	-ce-	.	.
.	.	.	.	.	.	.	.	4e	.
1FFl	-ve.	1Fl	-ve.	1Al	-ve.	1cl	-ve.>	1fl	-ve.
==	==	==	==	==	==	==	==	==	==
*-	*-	*-	*-	*-	*-	*-	*-	*-	*-
!!!system-decoration: [(s1)(s2)(s3)(s4)(s5)]
!!!RDF**kern: i = editorial accidental
!!!RDF**kern: l = terminal long
!!!ENC: Emiliano Ricciardi
!!!END: 2019/08
!!!EED: Ricciardi, Emiliano
!!!EEV: 2019/08/23
!!!YEC: Copyright 2019 Emiliano Ricciardi, All Rights Reserved
!!!ONB: Translated from MusicXML on 2019/08/23 and edited by Craig Stuart Sapp
